!!!!SEGMENT: pl-kk--kk-i-6--028-002_anonim--tempore-paschali-et-in-terra.krn
!!!cenid: 16xx:1000
!!!COM: Anonim
!!!COM-rismID: pe30004985
!!!CDT:
!!!CNT:
!!!OPR: Tempore Paschali
!!!OTL: Et in terra
!!!OMV: 002
!!!PDT:
!!!AGN: Sacred; Easter
!!!SMS-siglum: PL-Kk
!!!SMS-shelfmark: Kk.I.6
!!!SMS-shelfwork: 028-002 M
!!!SMS-variant:
!!!SMS-altvar:
!!!NIFC-rismSourceID: 1001136067
!!!NIFC-islandoraID: pl-kk:1634
!!!URL-pdf-islandora: https://repozytorium.nifc.pl/islandora/object/pl-kk%3A1634/datastream/PDF/view
!!!URL-scan: https://polish.musicsources.pl/pl/lokalizacje/galeria/rekopisy/6133 @EN{Scan on Polish Music Sources Website} @PL{Skany w portalu Dziedzictwo Muzyki Polskiej w otwartym dostępie}
!!!ONB-nifc: UWAGA: C (skan 0038-0042, s. 72-81), T (skan 0141-0148, s. 87-100), B (skan 0251-0258, s. 85-98) Części Mszy: 1. Kyrie, 2. Et in terra, 3. Patrem, 4. Sanctus, 5. Agnus Dei
!!!AIN: 1 empty 1 tenor 1 vox
!!!key:
**kern	**text	**kern	**text	**kern	**text
*part3	*part3	*part2	*part2	*part1	*part1
*staff3	*staff3	*staff2	*staff2	*staff1	*staff1
*Iempty	*	*Itenor	*	*Ivox	*
*I"Baſsus.	*	*I"Tenor.	*	*I"Cantus.	*
*I'B	*	*I'T	*	*I'S	*
*clefF4	*	*clefC4	*	*clefC4	*
*k[]	*	*k[]	*	*k[]	*
*C:	*	*C:	*	*C:	*
*M2/1	*	*M2/1	*	*M2/1	*
*met(C|)	*	*met(C|)	*	*met(C|)	*
=1-	=1-	=1-	=1-	=1-	=1-
2r	.	2r	.	1G,<	ET
1G	ET	1B	ET	.	.
*	*	*	*	*lig	*
.	.	.	.	1B	in
!LO:TX:t=P:problem=all\middle or right&colon; global	!	!	!	!	!
2G\	in	2G/	in	.	.
=2-	=2-	=2-	=2-	=2-	=2-
2C/	ter-	1G	ter-	1c	.
2E\	-ra	.	.	.	.
*	*	*	*	*Xlig	*
1D	pax	1A	-ra	1d	.
=3-	=3-	=3-	=3-	=3-	=3-
*	*	*	*	*lig	*
1GG	ho-	1.B	pax	1d	ter-
1AA	-mi-	.	.	1c	.
.	.	2.A/	ho-	.	.
*	*	*	*	*Xlig	*
=4-	=4-	=4-	=4-	=4-	=4-
2.BB/	.	.	.	1B	.
!	!	!LO:TX:t=P:problem=4/middle or right&colon; global	!	!	!
.	.	4G/	.	.	.
.	.	1G	-mi-	.	.
!LO:TX:t=P:problem=4/middle or right&colon; global	!	!	!	!	!
4C/	ni-	.	.	.	.
*	*	*	*	*lig	*
2D/	.	.	.	1A	-ra
!	!	!LO:TX:t=P:problem=♯ below	!	!	!
2D/	.	2F#X/	-ni-	.	.
=5-	=5-	=5-	=5-	=5-	=5-
*custos:G	*	*	*	*	*
1GG	-bus	2G,</	-bus	1B	.
.	.	1d	Et	.	.
!LO:LB:g=original	!	!	!	!	!
*	*	*	*	*Xlig	*
1.G	Et	.	.	1B	pax
!	!	!LO:TX:t=P:problem=all\middle&colon; global	!	!	!
.	.	2d\	in	.	.
=6-	=6-	=6-	=6-	=6-	=6-
*	*	*	*	*lig	*
.	.	2.B\	ter-	1B	ho-
2G\	in	.	.	.	.
*	*	*custos:d	*	*	*
.	.	4c\	.	.	.
!LO:TX:t=P:problem=♯ below	!	!	!	!	!
!	!	!LO:LB:g=original	!	!	!
2F#X\	ter-	1d	.	1A	.
!LO:TX:t=P:problem=♯ below	!	!	!	!	!
2F#X\	-ra	.	.	.	.
*	*	*	*	*Xlig	*
=7-	=7-	=7-	=7-	=7-	=7-
*	*	*	*	*lig	*
1G	pax	2d\	-ra	1B	-mi-
.	.	2.e\	pax	.	.
1A	ho-	.	.	1c	.
.	.	4d\	.	.	.
.	.	2c\	ho-	.	.
*	*	*	*	*Xlig	*
=8-	=8-	=8-	=8-	=8-	=8-
*	*	*	*	*custos:A	*
1G	.	1.d	-mi-	1B	.
!	!	!	!	!LO:LB:g=original	!
2.D/	-mi-	.	.	1A	-ni-
.	.	2d\	-ni-	.	.
4D/	-ni-	.	.	.	.
=9-	=9-	=9-	=9-	=9-	=9-
2GG/	-bus	2B,<\	-bus	1G,<	-bus
1GG	Bo-	1G	Bo-	.	.
*	*	*	*	*lig	*
.	.	.	.	1B	bo-
2GG/	-nae	2G/	-nae	.	.
=10-	=10-	=10-	=10-	=10-	=10-
*lig	*	*	*	*	*
1C	Vo-	1.G	vo-	1c	.
*	*	*	*	*Xlig	*
*	*	*	*	*lig	*
1D	.	.	.	1A	-nae
.	.	2Fny/	-lun-	.	.
!	!	!LO:SIC:v:s=2F#	!	!	!
*Xlig	*	*	*	*	*
=11-	=11-	=11-	=11-	=11-	=11-
1E	-lun-	2G/	-ta-	1G,<	.
.	.	2E/	.	.	.
*	*	*	*	*Xlig	*
!	!	!LO:SIC:v:2.F#	!	!	!
1.D	-ta-	2.F/	.	1A	vo-
.	.	4G/	.	.	.
=12-	=12-	=12-	=12-	=12-	=12-
.	.	4A/	.	1A	-lun-
.	.	4B\	.	.	.
2C/	.	4c\	.	.	.
.	.	4A/	.	.	.
*	*	*custos:B	*	*	*
*	*	*	*	*lig	*
2.BB/	.	0d	.	1B	-ta-
*custos:D	*	*	*	*	*
4C/	.	.	.	.	.
!LO:LB:g=original	!	!	!	!	!
=13-	=13-	=13-	=13-	=13-	=13-
1D	.	.	.	1A	.
*	*	*	*	*Xlig	*
!	!	!LO:LB:g=original	!	!	!
0GG	-tis	2B,<\	-tis	1G,<	-tis
.	.	2G/	lau-	.	.
=14-	=14-	=14-	=14-	=14-	=14-
*	*	*	*	*lig	*
.	.	4B\	-da-	1G	Lau-
.	.	4c\	.	.	.
.	.	4d\	.	.	.
.	.	4B\	.	.	.
1rD	.	2.c\	.	1A	.
.	.	4d\	.	.	.
*	*	*	*	*Xlig	*
=15-	=15-	=15-	=15-	=15-	=15-
2rBB	.	1.e	.	1c	.
2C/	lau-	.	.	.	.
4E\	-da-	.	.	1B	-da-
4F\ny	.	.	.	.	.
4G\	.	2e\	.	.	.
4E\	.	.	.	.	.
=16-	=16-	=16-	=16-	=16-	=16-
1F	.	2c\	mus	1A	.
.	.	2A/	te	.	.
2.E\	-mus	1B	.	1G	-mus
4E\	.	.	.	.	.
=17-	=17-	=17-	=17-	=17-	=17-
2D/	te	2r	.	1A,<	te
2D/	lau-	2d\	lau-	.	.
4F\	-da-	4A/	-da-	1A	Be-
4G\	.	4B\	.	.	.
4A\	.	4c\	.	.	.
4F\	.	4A/	.	.	.
=18-	=18-	=18-	=18-	=18-	=18-
*	*	*	*	*custos:c	*
2.G\	.	2.d\	.	1B	-ne-
*	*	*custos:e	*	*	*
4G\	mus	4d\	-mus	.	.
!	!	!LO:LB:g=original	!	!LO:LB:g=original	!
*	*	*	*	*lig	*
2C/	te	2e\	te	1c	-di-
2C/	Be-	2.c\	Be-	.	.
=19-	=19-	=19-	=19-	=19-	=19-
*custos:AA	*	*	*	*	*
1GG	-ne-	.	.	1d	.
.	.	4c\	-ne-	.	.
.	.	2.B\	-di-	.	.
!LO:LB:g=original	!	!	!	!	!
*	*	*	*	*Xlig	*
2.AA/	-di-	.	.	1c	-ci-
.	.	4A/	-ci-	.	.
.	.	1A\	-mus	.	.
4AA/	-ci-	.	.	.	.
=20-	=20-	=20-	=20-	=20-	=20-
1E	-mus	.	.	1B	-mus
!	!	!LO:TX:t=P:problem=♯ below	!	!	!
.	.	2G#X/	.	.	.
*	*	*	*	*lig	*
1AA	te	1A	te	1A	te
=21-	=21-	=21-	=21-	=21-	=21-
1.C	A-	2rF	.	1G,<	.
.	.	1E	A-	.	.
*	*	*	*	*Xlig	*
*	*	*	*	*lig	*
.	.	.	.	1G	A-
2C/	-do-	2E/	-do-	.	.
=22-	=22-	=22-	=22-	=22-	=22-
2.FF/	-ra-	1F	-ra-	1A	.
4GG/	.	.	.	.	.
*	*	*	*	*Xlig	*
1.AA	.	1.E	.	1A	-do-
=23-	=23-	=23-	=23-	=23-	=23-
.	.	.	.	1A	-ra-
2AA/	-mus	2E/	-mus	.	.
*	*	*	*	*lig	*
!	!	!LO:TX:t=P:problem=♯ below	!	!	!
1D	te	1F#X	te	1A	.
=24-	=24-	=24-	=24-	=24-	=24-
2rBB	.	1.Gny	A-	1B	.
2GG/	A-	.	.	.	.
*	*	*	*	*Xlig	*
*	*	*	*	*lig	*
1AA	-do-	.	.	1c	.
.	.	2F/ny	-do-	.	.
=25-	=25-	=25-	=25-	=25-	=25-
1GG	-ra-	2G/	[ra]-	1B	.
.	.	1d	.	.	.
*	*	*	*	*Xlig	*
*	*	*	*	*lig	*
1FF	.	.	.	1A	.
.	.	2c\	.	.	.
!	!	!LO:LB:g=original	!	!	!
=26-	=26-	=26-	=26-	=26-	=26-
1.GG	.	2B\	.	1G	.
.	.	1c	.	.	.
*	*	*	*	*Xlig	*
.	.	.	.	1G	mus
2GG/	-mus	2B\	-mus	.	.
=27-	=27-	=27-	=27-	=27-	=27-
1C,<	te	1c	te	1G,<	te
*	*	*	*	*custos:G	*
2G\	glo-	2d\	Glo-	1B	glo-
4G\	-ri-	4d\	-ri-	.	.
4G\	-fi-	4d\	-fi-	.	.
!LO:LB:g=original	!	!	!	!LO:LB:g=original	!
=28-	=28-	=28-	=28-	=28-	=28-
*2\right	*	*	*	*	*
2C\	-ca-	2c\	-ca-	1G	-ri-
2C,<\	-mus	2c\	-mus	.	.
*2\left	*	*	*	*	*
2G\	Glo-	2d\	glo-	1B	-fi-
4G\	-ri-	4d\	-ri-	.	.
4G\	-fi-	4d\	-fi-	.	.
=29-	=29-	=29-	=29-	=29-	=29-
*	*	*	*	*lig	*
4D/	-ca-	1f	-ca-	1d	-ca-
4E\	.	.	.	.	.
4F\	.	.	.	.	.
4G\	.	.	.	.	.
4A\	.	2e\	.	1c	.
4B\	.	.	.	.	.
2c\	.	1c\	.	.	.
*	*	*	*	*Xlig	*
=30-	=30-	=30-	=30-	=30-	=30-
2.G\	.	.	.	1d	-mus
.	.	2B\	-mus	.	.
4G\	mus	.	.	.	.
2C,</	te	2c\	te	1c,<	te
2.C/	Gra-	2.E/	Gra-	.	.
=31-	=31-	=31-	=31-	=31-	=31-
.	.	.	.	1G	Gra-
4C/	-ti-	4E/	-ti-	.	.
2C/	-as	2E/	-as	.	.
2.AA/	a-	2.E/	a-	1A	-ti-
*	*	*custos:G	*	*	*
4AA/	-gi-	4E/	-gi-	.	.
!	!	!LO:LB:g=original	!	!	!
=32-	=32-	=32-	=32-	=32-	=32-
1GG	-mus	1G	-mus	1B	-as
1C	ti-	1G	ti-	1c	a-
=33-	=33-	=33-	=33-	=33-	=33-
*custos:D	*	*	*	*	*
1GG	-bi	1G	-bi	1B	-gi-
!LO:LB:g=original	!	!	!	!	!
2rBB	.	2rF	.	1A	-mus
!	!	!LO:TX:t=P:problem=♯ below	!	!	!
2.D/	gra-	2.F#X/	gra-	.	.
=34-	=34-	=34-	=34-	=34-	=34-
*	*	*	*	*lig	*
.	.	.	.	1A	ti-
!	!	!LO:TX:t=P:problem=♯ below	!	!	!
4D/	-ti-	4F#X/	-ti-	.	.
!	!	!LO:TX:t=P:problem=♯ below	!	!	!
2D/	-as	2F#X/	-as	.	.
2.G\	a-	2.G/	a-	1B	.
4G\	-gi-	4G/	-gi-	.	.
*	*	*	*	*Xlig	*
=35-	=35-	=35-	=35-	=35-	=35-
2C/	-mus	2G/	-mus	1c	.
2AA/	ti-	2.A/	ti-	.	.
2.BB/	.	.	.	1B	.
.	.	4G/	.	.	.
.	.	1G/	.	.	.
4C/	.	.	.	.	.
=36-	=36-	=36-	=36-	=36-	=36-
1D	.	.	.	1A	.
!	!	!LO:TX:t=P:problem=♯ below	!	!	!
.	.	2F#X/	.	.	.
2GG/	-bi	1G	-bi	1G,<	-bi
1C/	pro-	.	.	.	.
=37-	=37-	=37-	=37-	=37-	=37-
*	*	*	*	*custos:A	*
.	.	2.c\	pro-	1G	pro-
2C/	-pter	.	.	.	.
.	.	4c\	-pter	.	.
!	!	!	!	!LO:LB:g=original	!
1F	ma-	2c\	ma-	1A	-pter
*	*	*custos:G	*	*	*
.	.	2Fny/	-gnam	.	.
!	!	!LO:PB:g=original	!	!	!
=38-	=38-	=38-	=38-	=38-	=38-
1C	-gnam	0G	glo-	1c	ma-
*	*	*	*	*lig	*
2.G\	.	.	.	1B	-gnam
4F\	glo-	.	.	.	.
=39-	=39-	=39-	=39-	=39-	=39-
2.E\	.	1G	-ri-	1c,<	.
*custos:D	*	*	*	*	*
4E\	-ri-	.	.	.	.
!LO:PB:g=original	!	!	!	!	!
*	*	*	*	*Xlig	*
*	*	*	*	*lig	*
1D	-am	2A/	-am	1d	glo-
.	.	2.A/	tu-	.	.
=40-	=40-	=40-	=40-	=40-	=40-
*lig	*	*	*	*	*
1AA	tu-	.	.	1c	.
.	.	4B\	.	.	.
.	.	1c	.	.	.
*	*	*	*	*Xlig	*
1GG	.	.	.	1d	.
.	.	2B\	.	.	.
*Xlig	*	*	*	*	*
=41-	=41-	=41-	=41-	=41-	=41-
1C	-am	1.c	.	1e	ri-
*	*	*	*	*lig	*
2GG/	glo-	.	.	1d	-am
2GG/	-ri-	1B\	.	.	.
=42-	=42-	=42-	=42-	=42-	=42-
1AA	-am	.	.	1c	.
.	.	1A	.	.	.
*	*	*	*	*Xlig	*
0E	tu-	.	.	1B	tu-
.	.	4G/	.	.	.
!	!	!LO:TX:t=P:problem=♯ below	!	!	!
.	.	4F#X/	.	.	.
=43-	=43-	=43-	=43-	=43-	=43-
.	.	1G	.	1B,<	-am
*	*	*	*	*lig	*
2AA/	-am	2A,</	-am	1A	Do-
1A\	Do-	1c\	Do-	.	.
=44-	=44-	=44-	=44-	=44-	=44-
.	.	.	.	1e	.
2.c\	.	2.e\	.	.	.
*	*	*	*	*Xlig	*
.	.	.	.	1g	.
4c\	-mi-	4e\	-mi-	.	.
2B\	-ne	2d\	-ne	.	.
=45-	=45-	=45-	=45-	=45-	=45-
*	*	*custos:B	*	*	*
1c	De-	1c	De-	1e	-mi-
!	!	!LO:LB:g=original	!	!	!
1G	-us	1B	-us	1d	-ne
=46-	=46-	=46-	=46-	=46-	=46-
*	*	*	*	*lig	*
2.c\	Rex	0r	.	1e	De-
4c\	Cae-	.	.	.	.
*	*	*	*	*custos:c	*
4B\	.	.	.	1d	.
4A\	.	.	.	.	.
4B\	-le-	.	.	.	.
4G\	.	.	.	.	.
!	!	!	!	!LO:PB:g=original	!
*	*	*	*	*Xlig	*
=47-	=47-	=47-	=47-	=47-	=47-
*	*	*	*	*lig	*
*custos:G	*	*	*	*	*
1A	.	2.c\	Rex	1c	-us
.	.	4c\	Cae-	.	.
!LO:LB:g=original	!	!	!	!	!
2G\	-ſtis	4B\	-le-	1d	.
.	.	4A/	.	.	.
4G\	Rex	4B\	.	.	.
4G\	cae-	4G/	.	.	.
*	*	*	*	*Xlig	*
=48-	=48-	=48-	=48-	=48-	=48-
4F\	le-	1A	.	1d	Rex
4E\	.	.	.	.	.
4F\	.	.	.	.	.
4D/	.	.	.	.	.
2E\	.	2G/	.	1c	Cae-
2F\	.	2A/	.	.	.
=49-	=49-	=49-	=49-	=49-	=49-
1C	.	1G	.	1c	-le-
1F	.	1A	.	1c	-ſtis
=50-	=50-	=50-	=50-	=50-	=50-
*	*	*	*	*lig	*
1G,<	-ſtis	2d\	-ſtis	1B	De-
.	.	2.e\	De-	.	.
1A	De-	.	.	1c	.
.	.	4d\	.	.	.
.	.	1c\	.	.	.
*	*	*	*	*Xlig	*
=51-	=51-	=51-	=51-	=51-	=51-
1G	-us	.	.	1d	.
.	.	2B\	-us	.	.
*	*	*custos:G	*	*	*
1D	Pa-	1A	Pa-	1d	-us
!	!	!LO:LB:g=original	!	!	!
=52-	=52-	=52-	=52-	=52-	=52-
2.E\	-ter	1.G	-ter	1c	Pa-
4F\	.	.	.	.	.
1G	Om-	.	.	1B	-ter
.	.	2B\	O-	.	.
=53-	=53-	=53-	=53-	=53-	=53-
1C	-ni-	4A/	-mni-	1c	Om-
.	.	4G/	.	.	.
.	.	1G	.	.	.
2.D/	.	.	.	1A	-ni-
!	!	!LO:TX:t=P:problem=♯ below	!	!	!
.	.	2F#X/	-po-	.	.
4D/	-po-	.	.	.	.
=54-	=54-	=54-	=54-	=54-	=54-
*custos:G	*	*	*	*	*
1GG	-tens	1G	-tens	1B	-po-
!LO:LB:g=original	!	!	!	!	!
2r	.	2r	.	1B	-tens
1G\	Do-	1B\	Do-	.	.
=55-	=55-	=55-	=55-	=55-	=55-
*	*	*	*	*lig	*
.	.	.	.	1G	Do-
2G\	-mi-	2B\	-mi-	.	.
*	*	*	*	*custos:c	*
1F	-ne	2c\	-ne	1A	.
.	.	2A/	fi-	.	.
!	!	!	!	!LO:LB:g=original	!
*	*	*	*	*Xlig	*
=56-	=56-	=56-	=56-	=56-	=56-
1C	fi-	1G	.	1c	.
1C	-li	1G	-li	1c	-mi-
=57-	=57-	=57-	=57-	=57-	=57-
1F	v-	1A	v-	1c	-ne
*	*	*	*	*lig	*
1A	-ni-	2A/	-ni-	1c	fi-
.	.	1A\	-ge-	.	.
=58-	=58-	=58-	=58-	=58-	=58-
2.E\	-ge-	.	.	1B	.
*	*	*custos:A	*	*	*
!	!	!LO:TX:t=P:problem=♯ below	!	!	!
.	.	2G#X/	-ni-	.	.
4E\	-ni-	.	.	.	.
!	!	!LO:LB:g=original	!	!	!
*	*	*	*	*Xlig	*
*	*	*	*	*lig	*
1AA	-te	2A/	-te	1A	-li
.	.	2.E/	v-	.	.
=59-	=59-	=59-	=59-	=59-	=59-
2C/	v-	.	.	1G	.
.	.	4F/ny	-ni-	.	.
2E\	-ni-	1Gny	-ge-	.	.
*	*	*	*	*Xlig	*
1.D	-ge-	.	.	1A	v-
.	.	4F/	.	.	.
.	.	4E/	.	.	.
=60-	=60-	=60-	=60-	=60-	=60-
!	!	!LO:TX:t=P:problem=♯ below	!	!	!
.	.	2F#X/	.	1A	-ni-
!	!	!LO:TX:t=P:problem=♯ below	!	!	!
2D/	-ni-	2F#X/	-ni-	.	.
2GG/	-te	1G	-te	1B	-ge-
1G\	Je-	.	.	.	.
=61-	=61-	=61-	=61-	=61-	=61-
.	.	2r	.	1A	-ni-
2F\	-ſu	1d	Je-	.	.
*custos:D	*	*	*	*	*
1E	Chri-	.	.	1G	-te
.	.	2c\	-ſu	.	.
!LO:LB:g=original	!	!	!	!	!
=62-	=62-	=62-	=62-	=62-	=62-
*	*	*	*	*lig	*
1D	.	2B\	Chri-	1d	Je-
.	.	1A	.	.	.
1AA	.	.	.	1c	.
.	.	2c\	.	.	.
*	*	*	*	*Xlig	*
=63-	=63-	=63-	=63-	=63-	=63-
1BB	.	2.B\	.	1d	.
.	.	4A/	.	.	.
*	*	*	*	*lig	*
1C	.	2G/	-ste	1e	-ſu
.	.	1c\	Je-	.	.
=64-	=64-	=64-	=64-	=64-	=64-
0D	.	.	.	1d	.
.	.	2B\	-ſu	.	.
*	*	*	*	*Xlig	*
*	*	*custos:G	*	*custos:B	*
.	.	1A	Chri-	1d	.
!	!	!LO:LB:g=original	!	!LO:LB:g=original	!
=65-	=65-	=65-	=65-	=65-	=65-
2GG/	-ſte	4G/	-ſte	1B	Chri-
.	.	2d\	Do-	.	.
2.G\	Do-	.	.	.	.
.	.	4d\	-mi-	.	.
.	.	2d\	-ne	1B	-ſte
4G\	-mi-	.	.	.	.
2G\	-ne	1B\	De-	.	.
=66-	=66-	=66-	=66-	=66-	=66-
*	*	*	*	*lig	*
2.E\	De-	.	.	1e	Do-
.	.	2c\	.	.	.
4F\	-us	.	.	.	.
2G\	A-	1B	-us	1d	.
2G\	-gnus	.	.	.	.
*	*	*	*	*Xlig	*
=67-	=67-	=67-	=67-	=67-	=67-
*	*	*	*	*lig	*
1A	De-	1r	.	1c	.
1G	-i	2r	.	1d	.
.	.	2.G/	Do-	.	.
*	*	*	*	*Xlig	*
=68-	=68-	=68-	=68-	=68-	=68-
2.C/	Do-	.	.	1c	-mi-
.	.	4G/	-mi-	.	.
.	.	2G/	-ne	.	.
4C/	-mi-	.	.	.	.
*custos:AA	*	*	*	*	*
1C	-ne	4E/	De-	1c	-ne
.	.	4Fny/	-us	.	.
.	.	4G/	.	.	.
.	.	4G/	A-	.	.
!LO:LB:g=original	!	!	!	!	!
=69-	=69-	=69-	=69-	=69-	=69-
2.AA/	De-	1A	-gnus	1c	De-
4BB/	.	.	.	.	.
2C/	-us	1G	De-	1c	-us
2C/	A-	.	.	.	.
=70-	=70-	=70-	=70-	=70-	=70-
*	*	*custos:G	*	*	*
*	*	*	*	*lig	*
1D	-gnus	1F	.	1B	A-
!	!	!LO:LB:g=original	!	!	!
1C	De-	2G/	-i	1c	.
.	.	2.G/	D(o-	.	.
*	*	*	*	*Xlig	*
=71-	=71-	=71-	=71-	=71-	=71-
1GG	-i	.	.	1d	-gnus
.	.	4G/	-mi)-	.	.
.	.	2G/	-ne	.	.
!	!	!LO:TX:t=P:problem=♯ below	!	!	!
2rBB	.	2.F#X/	De-	1d	.
*	*ij	*	*	*	*
2.D/	Do-	.	.	.	.
.	.	4G/	.	.	.
=72-	=72-	=72-	=72-	=72-	=72-
*	*	*	*	*lig	*
.	.	2A/	-us	1d	De-
4D/	-mi-	.	.	.	.
2BB/	-ne	2B\	.	.	.
2.C/	De-	1G	A-	1c	.
4D/	us	.	.	.	.
*	*	*	*	*Xlig	*
=73-	=73-	=73-	=73-	=73-	=73-
*	*	*	*	*lig	*
1E	A-	2G/	-gnus	1B	.
.	.	1G	De-	.	.
*	*	*	*	*custos:A	*
1C	-gnus	.	.	1c	.
.	.	2E/	.	.	.
!	!	!	!	!LO:LB:g=original	!
*	*	*	*	*Xlig	*
=74-	=74-	=74-	=74-	=74-	=74-
1F	De-	2F,</ny	-i	1A	.
.	.	2c\	fi-	.	.
1C,<	-i	1c	-li-	1G	-i
*	*Xij	*	*	*	*
=75-	=75-	=75-	=75-	=75-	=75-
*	*	*	*	*lig	*
1GG	fi-	1B	-us	1d	fi-
1AA	-li-	1.A	Pa-	1c	.
*	*	*	*	*Xlig	*
=76-	=76-	=76-	=76-	=76-	=76-
1BB	-us	.	.	1B	.
.	.	1G	.	.	.
1D	Pa-	.	.	1A	li-
!	!	!LO:TX:t=P:problem=♯ below	!	!	!
.	.	2F#X/	.	.	.
=77-	=77-	=77-	=77-	=77-	=77-
1E	.	1.G	.	1G	-us
0D	.	.	.	0A	Pa-
.	.	4F#/	.	.	.
.	.	4E/	.	.	.
=78-	=78-	=78-	=78-	=78-	=78-
.	.	1F#	.	.	.
!LO:N:vis=0	!	!LO:N:vis=0	!	!LO:N:vis=0	!
1GG;;l	-tris.	1G;	-tris	1B;;l	-tris.
!LO:LB:g=original	!	!LO:PB:g=original	!	!LO:LB:g=original	!
=79-	=79-	=79-	=79-	=79-	=79-
*M2/1	*	*M2/1	*	*M2/1	*
*met(C|)	*	*met(C|)	*	*met(C|)	*
2r	.	1B	Qui	1G	Qui
2G\	Qui	.	.	.	.
*	*	*	*	*lig	*
1C	tol-	0c	tol-	1G	tol-
=80-	=80-	=80-	=80-	=80-	=80-
1F	-lis	.	.	1A	.
*	*	*	*	*Xlig	*
1F	pec-	1A	-lis	1c	-lis
=81-	=81-	=81-	=81-	=81-	=81-
1C	-ca-	1.G	.	1c	pec-
*	*	*	*	*lig	*
1GG	-ta	.	.	1B	-ca-
.	.	2G/	.	.	.
=82-	=82-	=82-	=82-	=82-	=82-
1AA	.	1E	pec-	1A	.
*	*	*	*	*Xlig	*
1GG	.	1.G	-ca-	1B	.
=83-	=83-	=83-	=83-	=83-	=83-
1C	mun-	.	.	1c	.
.	.	2G/	-ta	.	.
2GG/	-di	1G	mun-	1B	-ta
2G\	pec-	.	.	.	.
=84-	=84-	=84-	=84-	=84-	=84-
*	*	*	*	*lig	*
2G\	-ca-	2D/	-di	1A	mun-
2F\	-ta	2d\	pec-	.	.
1E	mun-	2d\	-ca-	1G	.
!	!	!LO:TX:t=P:problem=♯ below	!	!	!
.	.	2c#X\	-ta	.	.
*	*	*	*	*Xlig	*
=85-	=85-	=85-	=85-	=85-	=85-
*custos:GG	*	*custos:B	*	*	*
1D	.	1d	mun-	1A	.
!LO:PB:g=original	!	!LO:LB:g=original	!	!	!
2GG/	-di	2B\	-di	1G,<	-di
1C/	mi-	1e\	Mi-	.	.
=86-	=86-	=86-	=86-	=86-	=86-
*	*	*	*	*lig	*
.	.	.	.	1G	Mi-
2BB/	-ſe-	2d\	-ſe-	.	.
*	*	*	*	*custos:B	*
1AA	-re-	2c\ny	-re-	1A	.
.	.	2C/	-re	.	.
!	!	!	!	!LO:LB:g=original	!
*	*	*	*	*Xlig	*
=87-	=87-	=87-	=87-	=87-	=87-
1GG	-re	1G	no-	1B	-ſe-
1FF	[no]-	1.A	.	1c	-re-
=88-	=88-	=88-	=88-	=88-	=88-
1GG	.	.	.	1B	-re
.	.	2.G/	.	.	.
2.AA/	.	.	.	1A	No-
.	.	4F/ny	.	.	.
.	.	1F/	.	.	.
4BB/	.	.	.	.	.
=89-	=89-	=89-	=89-	=89-	=89-
1C	.	.	.	1G	.
.	.	2E/	.	.	.
1FF	-bis	1F	-bis	1A	.
=90-	=90-	=90-	=90-	=90-	=90-
2rBB	.	1rA	.	1G,<	-bis
2C/	Qui	.	.	.	.
2E\	tol-	2rF	.	1G	Qui
2E\	-lis	2G/	Qui	.	.
=91-	=91-	=91-	=91-	=91-	=91-
*	*	*	*	*lig	*
1G	pec-	2B\	tol-	1G	tol-
.	.	2B\	-lis	.	.
2F\	-ca-	2c\	pec-	1A	.
4F\	-ta	2.c\	-ca-	.	.
*custos:AA	*	*	*	*	*
4FF/	Qui	.	.	.	.
!LO:LB:g=original	!	!	!	!	!
*	*	*	*	*Xlig	*
=92-	=92-	=92-	=92-	=92-	=92-
2AA/	.	.	.	1c	.
.	.	4B\	-ta	.	.
*	*	*custos:E	*	*	*
2AA/	tol-	2A/	mun-	.	.
!	!	!LO:LB:g=original	!	!	!
2C/	-lis	2E/	-di	1c	-lis
4C/	pec-	2e\	pec-	.	.
4D/	.	.	.	.	.
=93-	=93-	=93-	=93-	=93-	=93-
*	*	*	*	*lig	*
4E\	.	2e\	-ca-	1B	pec-
4F\	.	.	.	.	.
2G\	-pec-	2d\	-ta	.	.
1A	-ca-	2c\	mun-	1c	.
.	.	2A/	-di	.	.
*	*	*	*	*Xlig	*
=94-	=94-	=94-	=94-	=94-	=94-
2G,<\	-ta	2B\	.	1d	-ca-
2GG/	qui	2B\	pec-	.	.
*	*	*	*	*lig	*
2BB/	tol-	4d\	-ca-	1d	-ta
.	.	4c\	.	.	.
2BB/	-lis	4B\	.	.	.
.	.	4A/	.	.	.
=95-	=95-	=95-	=95-	=95-	=95-
*	*	*	*	*custos:B	*
2C/	pec-	2G/	.	1c	.
2AA/	-ca-	2.A/	.	.	.
!	!	!	!	!LO:PB:g=original	!
*	*	*	*	*Xlig	*
2.BB/	-ta	.	.	1B	.
.	.	4G/	.	.	.
.	.	1G/	ta	.	.
4C/	.	.	.	.	.
=96-	=96-	=96-	=96-	=96-	=96-
1D	mun-	.	.	1A	mun-
!	!	!LO:TX:t=P:problem=♯ below	!	!	!
.	.	2F#X/	mun-	.	.
2GG/	-di	2G/	-di	1B,<	-di
2.G\	Su-	2.B\	Su-	.	.
=97-	=97-	=97-	=97-	=97-	=97-
*	*	*	*	*lig	*
.	.	.	.	1G	ſu-
4G\	-sci-	4B\	-sci-	.	.
*custos:F	*	*custos:c	*	*	*
2G\	-pe	2B\	-pe	.	.
!LO:LB:g=original	!	!LO:LB:g=original	!	!	!
1.F	de-	2.c\	de-	1A	.
.	.	4B\	-pre-	.	.
*	*	*	*	*Xlig	*
=98-	=98-	=98-	=98-	=98-	=98-
.	.	2A/	-ca-	1c	.
2E\	-pre-	2G/	-ti-	.	.
1F	-ca-	1A	-o-	1c	-sci-
=99-	=99-	=99-	=99-	=99-	=99-
1C	-ti-	1.G	-nem	1c	-pe
1G	-o-	.	.	1B	de-
.	.	2.d\	No-	.	.
=100-	=100-	=100-	=100-	=100-	=100-
1A	-nem	.	.	1c	-pre-
.	.	4c\	.	.	.
.	.	1c	.	.	.
1G	no-	.	.	1d	-ca-
.	.	2B\	.	.	.
=101-	=101-	=101-	=101-	=101-	=101-
1C	-stram	1c	-ſtram	1c	-ti-
2rBB	.	1.G	de-	1d	-o-
1GG/	de-	.	.	.	.
=102-	=102-	=102-	=102-	=102-	=102-
*	*	*	*	*lig	*
.	.	.	.	1d	-nem
2GG/	-pre-	2G/	-pre-	.	.
1C	-ca-	2.G/	-ca-	1e	.
.	.	4A/	-ti-	.	.
*	*	*	*	*Xlig	*
=103-	=103-	=103-	=103-	=103-	=103-
1BB	-ti-	4B\	-o-	1d	.
.	.	4B\	-nem	.	.
.	.	2.B\	no-	.	.
2.C/	-o-	.	.	1c	.
.	.	4A/	.	.	.
.	.	1A\	.	.	.
4D/	-nem	.	.	.	.
=104-	=104-	=104-	=104-	=104-	=104-
*	*	*	*	*custos:B	*
0E	no-	.	.	1B	.
.	.	4G/	.	.	.
*	*	*custos:G	*	*	*
!	!	!LO:TX:t=P:problem=♯ below	!	!	!
.	.	4F#X/	.	.	.
!	!	!LO:LB:g=original	!	!LO:LB:g=original	!
.	.	1G	.	1B	no-
=105-	=105-	=105-	=105-	=105-	=105-
*custos:D	*	*	*	*	*
0AA	-stram	2A,</	-ſtram	1A,<	-ſtram
.	.	2A/	Qui	.	.
*	*	*	*	*lig	*
.	.	2c\	ſe-	1e	Qui
.	.	4c\	-des	.	.
.	.	4c\	ad	.	.
!LO:LB:g=original	!	!	!	!	!
=106-	=106-	=106-	=106-	=106-	=106-
2r	.	2.f\	dex-	1d	.
2D/	Qui	.	.	.	.
.	.	4f\	-te-	.	.
*lig	*	*	*	*Xlig	*
1A	ſe-	1c	-ram	1e	ſe-
=107-	=107-	=107-	=107-	=107-	=107-
1G	.	1r	.	1g	.
*Xlig	*	*	*	*	*
4A\	-des	2r	.	1e	-des
4A\	ad	.	.	.	.
2.c\	dex-	2A/	Qui	.	.
=108-	=108-	=108-	=108-	=108-	=108-
.	.	1d	ſe-	1d	ad
4c\	-te-	.	.	.	.
2B\	-ram	.	.	.	.
2c\	Pa-	2c\	-des	1e	dex-
2C/	.	2e\	ad	.	.
=109-	=109-	=109-	=109-	=109-	=109-
*lig	*	*	*	*	*
1G	.	2.g\	dex-	1d	-te-
.	.	4f\	-te-	.	.
1A	.	2e\	-ram	1c,<	-ram
.	.	1c\	Pa-	.	.
*Xlig	*	*	*	*	*
=110-	=110-	=110-	=110-	=110-	=110-
1G	.	.	.	1d	Pa-
*	*	*custos:c	*	*	*
.	.	2B\	.	.	.
!	!	!LO:LB:g=original	!	!	!
1C	-tris	1c	-tris	1c	-tris
=111-	=111-	=111-	=111-	=111-	=111-
2r	.	1.G	Mi-	1B	Mi-
2G\	Mi-	.	.	.	.
1E	-ſe-	.	.	1c	-se-
.	.	2G/	-ſe-	.	.
=112-	=112-	=112-	=112-	=112-	=112-
2.D/	-re-	2F/ny	-re-	1d	-re-
.	.	1A	-re	.	.
*custos:B	*	*	*	*	*
4C/	.	.	.	.	.
*	*	*	*	*lig	*
!LO:LB:g=original	!	!	!	!	!
1BB-X	.	.	.	1d	-re
.	.	1G/	no-	.	.
=113-	=113-	=113-	=113-	=113-	=113-
*	*	*	*	*custos:B	*
1AA	re	.	.	1c	.
!	!	!LO:TX:t=P:problem=♯ below	!	!	!
.	.	2F#X/	.	.	.
!	!	!	!	!LO:LB:g=original	!
*lig	*	*	*	*Xlig	*
*	*	*	*	*lig	*
1GG	no-	2G/	.	1B	.
.	.	2B\	.	.	.
=114-	=114-	=114-	=114-	=114-	=114-
1C	.	4A/	.	1c	.
.	.	4G/	.	.	.
.	.	1G	.	.	.
*Xlig	*	*	*	*Xlig	*
1D	.	.	.	1A	no-
!	!	!LO:TX:t=P:problem=♯ below	!	!	!
.	.	2F#X/	.	.	.
=115-	=115-	=115-	=115-	=115-	=115-
2GG/	-bis	2G/	-bis	1G,<	-bis
1C	Quo-	1E	Quo-	.	.
.	.	.	.	1G	Quo-
2C/	-ni-	2E/	-ni-	.	.
=116-	=116-	=116-	=116-	=116-	=116-
*	*	*custos:G	*	*	*
1AA	-am	1E	-am	1A	-ni-
!	!	!LO:PB:g=original	!	!	!
1GG	tu	2G/	Tu	1B,<	-am
.	.	2.G/	So-	.	.
=117-	=117-	=117-	=117-	=117-	=117-
*	*	*	*	*lig	*
1G	So-	.	.	1B	Tu
.	.	4A/	.	.	.
.	.	2B\	.	.	.
1A	-lus	1c	.	1A	.
*	*	*	*	*Xlig	*
=118-	=118-	=118-	=118-	=118-	=118-
1G	.	1d	-lus	1B	.
2.C/	San-	0e	San-	1c	So-
4D/	.	.	.	.	.
=119-	=119-	=119-	=119-	=119-	=119-
*lig	*	*	*	*	*
1E	.	.	.	1B,<	-lus
1F	.	1c	.	1A	San-
*Xlig	*	*	*	*	*
=120-	=120-	=120-	=120-	=120-	=120-
*custos:GG	*	*	*	*	*
*	*	*	*	*lig	*
1C	-ctus	0c	-ctus	1G	-ctus
!LO:LB:g=original	!	!	!	!	!
1rD	.	.	.	1A	.
*	*	*	*	*Xlig	*
=121-	=121-	=121-	=121-	=121-	=121-
*	*	*	*	*lig	*
1GG	Tu	0r	.	1B	Tu
1AA	.	.	.	1c	.
*	*	*	*	*Xlig	*
=122-	=122-	=122-	=122-	=122-	=122-
*	*	*	*	*lig	*
1BBny	So-	2r	.	1d	So-
.	.	1G	Tu	.	.
*	*	*	*	*custos:d	*
1C	-lus	.	.	1c	.
.	.	2A/	.	.	.
!	!	!	!	!LO:LB:g=original	!
*	*	*	*	*Xlig	*
=123-	=123-	=123-	=123-	=123-	=123-
*	*	*	*	*lig	*
1BB	.	2B\	So-	1d	-lus
.	.	2d\	-lus	.	.
1C	Do-	2.c\	Do-	1e	.
*	*	*custos:A	*	*	*
.	.	4B\	.	.	.
!	!	!LO:LB:g=original	!	!	!
*	*	*	*	*Xlig	*
=124-	=124-	=124-	=124-	=124-	=124-
*	*	*	*	*lig	*
1D	.	2A/	.	1d	Do-
.	.	2.B\	.	.	.
1.E	.	.	.	1c	.
.	.	4A/	.	.	.
.	.	1A\	.	.	.
*	*	*	*	*Xlig	*
=125-	=125-	=125-	=125-	=125-	=125-
.	.	.	.	1B	-mi-
!	!	!LO:TX:t=P:problem=♯ below	!	!	!
2E\	-mi-	2G#X/	-mi-	.	.
1AA	-nus	1A	-nus	1A,<	-nus
=126-	=126-	=126-	=126-	=126-	=126-
1C	Tu	0r	.	1G	Tu
*	*	*	*	*lig	*
2E\	So-	.	.	1G	So-
2G\	-lus	.	.	.	.
=127-	=127-	=127-	=127-	=127-	=127-
1F	al-	1r	.	1A	.
*	*	*	*	*Xlig	*
*custos:F	*	*	*	*	*
1E	-tiſ-	2r	.	1c	.
.	.	2G/ny	Tu	.	.
!LO:PB:g=original	!	!	!	!	!
=128-	=128-	=128-	=128-	=128-	=128-
2F\	.	2A/	So-	1c,<	-lus
2A\	-ſi-	2c\	-lus	.	.
*	*	*	*	*lig	*
2G\	-mus	1d	al-	1B	al-
2GG/	Tu	.	.	.	.
=129-	=129-	=129-	=129-	=129-	=129-
2AA/	so-	2.c\	-tiſ-	1A	.
2C/	.	.	.	.	.
.	.	4c\	-si-	.	.
*	*	*	*	*Xlig	*
*	*	*	*	*lig	*
1BB	-lus	2G/	-mus	1B	-tiſ-
.	.	4r	.	.	.
.	.	4G/	Tu-	.	.
=130-	=130-	=130-	=130-	=130-	=130-
1AA	al-	2A/	-so-	1c	.
.	.	2c\	-lus	.	.
*	*	*	*	*Xlig	*
*	*	*custos:d	*	*	*
2.BB/	-tiſ-	1d	al-	1B	.
4C/	.	.	.	.	.
!	!	!LO:LB:g=original	!	!	!
=131-	=131-	=131-	=131-	=131-	=131-
2D/	.	2.d\	-tiſ-	1A	.
2D/	si-	.	.	.	.
.	.	4d\	-si-	.	.
1GG	-mus	2B\	-mus	1G	-si-
.	.	2.d\	Je-	.	.
=132-	=132-	=132-	=132-	=132-	=132-
*	*	*	*	*custos:d	*
2rBB	.	.	.	1G	-mus
.	.	4c\	.	.	.
1G	Je-	1B	-ſu	.	.
!	!	!	!	!LO:LB:g=original	!
*	*	*	*	*lig	*
.	.	.	.	1d	Je-
2F\	-ſu	2A/	Chri-	.	.
=133-	=133-	=133-	=133-	=133-	=133-
*lig	*	*	*	*	*
1E	Chri-	1G	.	1c	.
*	*	*	*	*Xlig	*
*custos:C	*	*	*	*	*
*	*	*	*	*lig	*
1D	.	2.A/	.	1d	-ſu
.	.	4B\	.	.	.
!LO:LB:g=original	!	!	!	!	!
*Xlig	*	*	*	*	*
=134-	=134-	=134-	=134-	=134-	=134-
1C	.	4c\	.	1e	.
.	.	4B\	.	.	.
.	.	4A/	.	.	.
.	.	4G/	.	.	.
*	*	*	*	*Xlig	*
0D	.	2F/ny	.	1d	.
.	.	1G/	.	.	.
=135-	=135-	=135-	=135-	=135-	=135-
*	*	*	*	*lig	*
.	.	.	.	1d	Chri-
!	!	!LO:TX:t=P:problem=♯ below	!	!	!
.	.	2F#X/	.	.	.
2GG/	-ſte	1G	-ſte	1B	.
2GG/	cum	.	.	.	.
*	*	*	*	*Xlig	*
=136-	=136-	=136-	=136-	=136-	=136-
2G\	San-	2rF	.	1B	-ſte
*	*	*custos:d	*	*	*
2G\	-cto	2G/	Cum	.	.
!	!	!LO:LB:g=original	!	!	!
*	*	*	*	*lig	*
2.F\	Spi-	2d\	San-	1A	cum
.	.	2d\	-cto	.	.
4F\	.	.	.	.	.
=137-	=137-	=137-	=137-	=137-	=137-
2.E\	.	2c\	Spi-	1e	.
.	.	2B\	-ri-	.	.
4D/	-ri-	.	.	.	.
*	*	*	*	*Xlig	*
1C	-tu	1c	-tu	1e	San-
=138-	=138-	=138-	=138-	=138-	=138-
*	*	*	*	*lig	*
2r	.	0r	.	1d	-cto
*	*ij	*	*	*	*
2D/	cum	.	.	.	.
2A\	San-	.	.	1c	.
2A\	-cto	.	.	.	.
*	*	*	*	*Xlig	*
=139-	=139-	=139-	=139-	=139-	=139-
*	*	*	*	*lig	*
2.G\	Spi-	2G/	Cum	1d	Spi-
.	.	4d\	San-	.	.
4F\	.	4d\	-cto	.	.
2E\	.	2.c\	Spi-	1e	.
*custos:D	*	*	*	*	*
2C/	ri-	.	.	.	.
.	.	4B\	-ri-	.	.
!LO:LB:g=original	!	!	!	!	!
*	*	*	*	*Xlig	*
=140-	=140-	=140-	=140-	=140-	=140-
1D	-tu	2A/	-tu	1d	.
*	*Xij	*	*	*	*
*	*	*	*ij	*	*
.	.	2D/	Cum	.	.
2rBB	.	2A/	San-	1c	-ri-
2AA/	Cum	2A/	-cto	.	.
=141-	=141-	=141-	=141-	=141-	=141-
2E\	San-	2.G/	Spi-	1B	.
2E\	-cto	.	.	.	.
.	.	4G/	-ri-	.	.
*	*	*	*	*custos:G	*
2D/	Spi-	2F/ny	.	1B	-tu
*	*	*	*Xij	*	*
2BB/	-ri-	2D/	.	.	.
!	!	!	!	!LO:LB:g=original	!
=142-	=142-	=142-	=142-	=142-	=142-
*	*	*custos:c	*	*	*
1C	-tu	1E	-tu	1G	in
!	!	!LO:LB:g=original	!	!	!
*	*	*	*	*lig	*
1C	in	2r	.	1G	glo-
.	.	2c\	in	.	.
=143-	=143-	=143-	=143-	=143-	=143-
2.F\	glo-	2.c\	glo-	1A	.
4F\	-ri-	4c\	-ri-	.	.
*	*	*	*	*Xlig	*
1C	-a	1c	-a	1c	.
=144-	=144-	=144-	=144-	=144-	=144-
2r	.	2e\	in	1c	-ri-
2F\	in	2.f\	glo-	.	.
2.c\	glo-	.	.	1c	-a
.	.	4f\	-ri-	.	.
.	.	2e\	-a	.	.
4c\	-ri-	.	.	.	.
=145-	=145-	=145-	=145-	=145-	=145-
*custos:E	*	*	*	*	*
*	*	*	*	*lig	*
1G	-a	4d\	De-	1B	De-
.	.	4c\	.	.	.
.	.	4B\	.	.	.
.	.	4A/	.	.	.
!LO:LB:g=original	!	!	!	!	!
1E	De-	1G	.	1c	.
*	*	*	*	*Xlig	*
=146-	=146-	=146-	=146-	=146-	=146-
1D	-i	1A	i	1d	.
*	*	*	*	*lig	*
4D/	Pa-	2.A/	Pa-	1d	-i
4E\	.	.	.	.	.
4F\	.	.	.	.	.
4G\	.	4B\	.	.	.
=147-	=147-	=147-	=147-	=147-	=147-
4A\	.	4c\	.	1c	.
4B\	.	4d\	.	.	.
*	*	*custos:d	*	*	*
2c\	.	2e\	.	.	.
!	!	!LO:LB:g=original	!	!	!
*	*	*	*	*Xlig	*
2.G\	.	4d\	.	1B	.
.	.	4c\	.	.	.
.	.	4B\	.	.	.
4F\	.	4A/	.	.	.
=148-	=148-	=148-	=148-	=148-	=148-
4E\	.	2G/	.	1c	.
4D/	.	.	.	.	.
2C/	.	2e\	.	.	.
1D	.	1d	.	1A	Pa-
=149-	=149-	=149-	=149-	=149-	=149-
2GG,</	-tris	2B\	-tris	1G,<	-tris
2GG/	in	2B\	in	.	.
*	*	*	*	*lig	*
2.C/	glo-	2.c\	glo-	1G	A-
4C/	-ri-	4c\	-ri-	.	.
=150-	=150-	=150-	=150-	=150-	=150-
*	*	*	*	*custos:c	*
2GG/	-a	2B,<\	-a	1d	.
*custos:A	*	*	*	*	*
2D/	in	2A/	in	.	.
!LO:LB:g=original	!	!	!	!LO:PB:g=original	!
*	*	*	*	*Xlig	*
2.A\	glo-	2.c\	glo-	1c	.
4A\	-ri-	4c\	-ri-	.	.
=151-	=151-	=151-	=151-	=151-	=151-
*	*	*	*	*lig	*
1G	-a	1B	-a	1d	.
2C/	De-	1.c	De-	1e	.
2C/	-i	.	.	.	.
*	*	*	*	*Xlig	*
=152-	=152-	=152-	=152-	=152-	=152-
0D	Pa-	.	.	1d	.
*	*	*custos:A	*	*	*
.	.	2B\	-i	.	.
*	*	*	*	*lig	*
!	!	!LO:PB:g=original	!	!	!
.	.	1A	Pa-	1d	.
=153-	=153-	=153-	=153-	=153-	=153-
1GG	.	2G/	-tris	1B	.
.	.	2.d\	A-	.	.
*	*	*	*	*Xlig	*
*	*	*	*	*lig	*
1GG	-tris	.	.	1d	.
.	.	4c\	.	.	.
.	.	2B\	.	.	.
=154-	=154-	=154-	=154-	=154-	=154-
1AA	A-	1A	.	1c	.
*	*	*	*	*Xlig	*
*	*	*	*	*lig	*
!	!	!LO:TX:t=P:problem=♯ below	!	!	!
2.BB/	.	1G#X	men	1B	.
4C/	.	.	.	.	.
=155-	=155-	=155-	=155-	=155-	=155-
1D	.	2d\	.	1A	.
.	.	4d\	A-	.	.
.	.	4c\	.	.	.
*	*	*	*	*Xlig	*
1E	.	4B\	.	1G	.
.	.	4A/	.	.	.
.	.	2G/ny	.	.	.
=156-	=156-	=156-	=156-	=156-	=156-
1D	.	2F/	.	1A	.
.	.	2.A/	.	.	.
2.BB/	.	.	.	1B	.
.	.	4G/	.	.	.
.	.	1G/	.	.	.
*custos:D	*	*	*	*	*
4C/	.	.	.	.	.
!LO:LB:g=original	!	!	!	!	!
=157-	=157-	=157-	=157-	=157-	=157-
0D	.	.	.	0A	men.
!	!	!LO:TX:t=P:problem=♯ below	!	!	!
.	.	4F#X/	.	.	.
.	.	4E/	.	.	.
*	*	*custos:G	*	*	*
.	.	1F#	-men	.	.
!	!	!LO:LB:g=original	!	!	!
=158-	=158-	=158-	=158-	=158-	=158-
!	!	!LO:SIC:v:s=1G	!	!	!
!	!	!LO:TX:t=P:problem=♯ below	!	!	!
1GG	-men	1G#X	.	00.G;;l	.
2rBB	.	2rc	.	.	.
1C/	A-	1e\	.	.	.
=159-	=159-	=159-	=159-	=159-	=159-
.	.	.	.	.	.
2BB/	-men	2d\	.	.	.
*	*ij	*	*	*	*
1C	A-	1c	.	.	.
=160-	=160-	=160-	=160-	=160-	=160-
0GG;;l	-men	0B;;l	.	.	.
*	*Xij	*	*	*	*
=-	=-	=-	=-	=-	=-
*-	*-	*-	*-	*-	*-
!!!system-decoration: [(s1,s2,s3)]
!!!RDF**kern: l = terminal long
!!!RDF**kern: > = above
!!!RDF**kern: < = below
!!!EED: Antoni Szymański
!!!EEV: 2021-03-22
!!!ENC: Krzysztof Stępień
!!!END: 2021-03-08
!!!YEC: Copyright 2022 Narodowy Instytut Fryderyka Chopina (https://polishscores.org)
!!!YEM: Licence CC BY 4.0 (https://creativecommons.org/licenses/by/4.0)
